X:1
T:Title
%%score { 1 | 2 }
L:1/8
M:6/8
K:E
V:1 treble nm="Grand Piano"
V:2 bass 
V:1
 z3 z[Q:1/4=81] G2 | .G2 G G[DF]G | A2 A .A2 G | [DF][DF][DF] [GB]2 [FA] | G3- G2 G/G/ | %5
 G2 G G[DF]G | A2 A .A2 G | [CEF][CEF][CEF] [B,DG]2 [A,B,F] | [G,B,E]3- [G,B,E]2 E | %9
 [Ec]2 [Ec] edc | B2 A .G2 [FG]/[FG]/ | [EG][EG][EG] ^AGA | [DB]3- [DB]2 [FA]/[FA]/ | %13
 [EG]2 [EG] [EG][DF]G | A2 A .A2 G | [CEF][CEF][CEF] [B,DG]2 [A,B,F] | %16
[M:5/8] [G,B,E]-[G,B,E]- [G,B,E]3 |] %17
V:2
 z3 z [E,B,E]2 | .[E,B,E]2 [E,B,E] [E,B,E][B,,B,][E,B,E] | [F,B,D]2 [F,B,D] .[F,B,D]2 [E,B,E] | %3
 [B,,B,][B,,B,][B,,B,] [B,,B,]2 [B,,B,] | [E,B,E]3- [E,B,E]2 [E,B,E]/[E,B,E]/ | %5
 [E,B,E]2 [E,B,E] [E,B,E][B,,B,][E,B,E] | [F,B,D]2 [F,B,D] .[F,B,D]2 [E,B,E] | A,,A,,A,, B,,2 B,, | %8
 E,3- E,2 E, | [A,,A,]2 [A,,A,] [A,CE][A,B,E][A,E] | [G,B,E]2 [F,B,D] .[E,G,E]2 [D,^B,]/[D,B,]/ | %11
 [C,C]2 [C,C] [F,CE]2 [F,E] | [B,,F,]3- [B,,F,]2 [D,B,]/[D,B,]/ | %13
 [E,B,]2 [E,B,] [E,B,][A,B,][G,B,E] | [F,B,D]2 [F,B,D] .[F,B,D]2 [E,B,E] | A,,A,,A,, B,,2 B,, | %16
[M:5/8] E,-E,- E,3 |] %17

